X: 11381
M: C
L: 1/8
Q: "Vivace"
K: D
(d>c) (d>e) f3 d | c2 A>A A2 A2 | (c>d) (e>f) g2 e2 |
(d>e) (f>g) Ha2 zA | (F>G) (A>B) A2 c2 |
d2 d>d d2 zA | f3 e {e}d2 (cB) | A2 A2 (AF) (GA) |
(dA) (df) {f}e2 (dc) | (dA) (df) {f}e2 (dc) |
(dA) (df) {f}e2 (dc) | d4 e4 | (dA) (df) {f}e2 (dc) |
d4 e4 | (dA) (df) {f}e2 (dc) | d4 fdfa |
{a}g2 fe {f}e2 dc | d2 d>d "Da Capo"d2 :|




